packages/foundations/assets/icons/functional/images/technology/bug_32.svg

<svg width="32" height="32" viewBox="0 0 32 32" fill="none" xmlns="http://www.w3.org/2000/svg">
<g clip-path="url(#clip0_187_563)">
<path fill-rule="evenodd" clip-rule="evenodd" d="M26.361 13.6716L29.421 15.0966C29.922 15.3286 30.139 15.9246 29.906 16.4246C29.736 16.7886 29.375 17.0026 28.999 17.0026C28.858 17.0026 28.714 16.9716 28.578 16.9086L25.949 15.6846L24 16.6286V18.4066L25.504 17.6776C25.775 17.5456 26.09 17.5436 26.362 17.6706L29.422 19.0956C29.923 19.3276 30.14 19.9236 29.907 20.4236C29.737 20.7876 29.376 21.0016 29 21.0016C28.859 21.0016 28.715 20.9706 28.579 20.9076L25.95 19.6836L24 20.6256V21.3236C24 21.7066 23.962 22.0796 23.908 22.4476L25.504 21.6746C25.775 21.5436 26.09 21.5416 26.362 21.6686L29.422 23.0936C29.923 23.3256 30.14 23.9216 29.907 24.4216C29.673 24.9226 29.076 25.1376 28.578 24.9056L25.948 23.6816L22.989 25.1156C21.666 27.4316 19.178 28.9996 16.325 28.9996H15.675C12.823 28.9996 10.334 27.4316 9.01098 25.1156L6.05198 23.6826L3.42198 24.9066C2.92198 25.1396 2.32698 24.9236 2.09298 24.4226C1.85998 23.9226 2.07698 23.3266 2.57798 23.0946L5.63798 21.6696C5.91098 21.5426 6.22598 21.5446 6.49598 21.6756L8.09198 22.4486C8.03698 22.0816 7.99998 21.7086 7.99998 21.3256V20.6276L6.05098 19.6836L3.42198 20.9076C3.28598 20.9716 3.14298 21.0016 3.00098 21.0016C2.62498 21.0016 2.26398 20.7876 2.09398 20.4236C1.86098 19.9236 2.07798 19.3276 2.57898 19.0956L5.63898 17.6706C5.91198 17.5436 6.22698 17.5456 6.49698 17.6776L8.00098 18.4066V16.6286L6.05198 15.6846L3.42298 16.9086C3.28698 16.9726 3.14398 17.0026 3.00198 17.0026C2.62598 17.0026 2.26498 16.7886 2.09498 16.4246C1.86198 15.9246 2.07898 15.3286 2.57998 15.0966L5.63998 13.6716C5.91298 13.5446 6.22798 13.5466 6.49798 13.6786L9.22998 15.0026H22.771L25.503 13.6786C25.774 13.5466 26.089 13.5446 26.361 13.6716ZM22.001 17.0016H10.001V21.3256C10.001 24.4556 12.547 27.0016 15.676 27.0016H16.326C19.455 27.0016 22.001 24.4556 22.001 21.3256V17.0016ZM17.001 23.0006C17.553 23.0006 18.001 23.4476 18.001 24.0006C18.001 24.5536 17.553 25.0006 17.001 25.0006H15.001C14.449 25.0006 14.001 24.5536 14.001 24.0006C14.001 23.4476 14.449 23.0006 15.001 23.0006H17.001ZM19 19.0096C19.552 19.0096 20 19.4566 20 20.0096C20 20.5626 19.552 21.0096 19 21.0096H12.986C12.434 21.0096 11.986 20.5626 11.986 20.0096C11.986 19.4566 12.434 19.0096 12.986 19.0096H19ZM11.286 3.82764C11.485 4.97164 12.096 6.00664 12.963 6.77664C13.889 6.28264 14.923 5.99964 16 5.99964C17.077 5.99964 18.111 6.28264 19.037 6.77664C19.904 6.00564 20.515 4.97064 20.714 3.82764C20.809 3.28564 21.327 2.92264 21.871 3.01464C22.415 3.10964 22.78 3.62664 22.685 4.17164C22.432 5.62064 21.72 6.96064 20.684 7.99664C21.697 9.00764 22.425 10.3336 22.685 11.8276C22.752 12.2136 22.786 12.6076 22.786 13.0006C22.786 13.5536 22.338 14.0006 21.786 14.0006H10.214C9.66198 14.0006 9.21398 13.5536 9.21398 13.0006C9.21398 12.6076 9.24798 12.2136 9.31498 11.8276C9.57598 10.3326 10.303 9.00664 11.316 7.99664C10.28 6.95964 9.56698 5.62064 9.31498 4.17164C9.21998 3.62664 9.58498 3.10964 10.129 3.01464C10.68 2.92264 11.191 3.28464 11.286 3.82764ZM16.001 8.00064C13.82 8.00064 11.796 9.74364 11.32 12.0006H20.682C20.206 9.74364 18.182 8.00064 16.001 8.00064Z" fill="#1A1C1F"/>
</g>
<defs>
<clipPath id="clip0_187_563">
<rect width="32" height="32" fill="white"/>
</clipPath>
</defs>
</svg>

<svg xmlns="http://www.w3.org/2000/svg" width="32" height="32" fill="none"><g clip-path="url(#a)"><path fill="#1A1C1F" fill-rule="evenodd" d="m26.361 13.672 3.06 1.425a1 1 0 1 1-.843 1.812l-2.629-1.224-1.949.944v1.778l1.504-.73a1 1 0 0 1 .858-.006l3.06 1.425a1 1 0 1 1-.843 1.812l-2.629-1.224-1.95.942v.698c0 .383-.038.756-.092 1.124l1.596-.773a1 1 0 0 1 .858-.006l3.06 1.425a1 1 0 1 1-.844 1.812l-2.63-1.224-2.959 1.434C21.666 27.432 19.178 29 16.325 29h-.65c-2.852 0-5.341-1.568-6.664-3.884l-2.959-1.433-2.63 1.224a1 1 0 0 1-.844-1.812l3.06-1.425a1 1 0 0 1 .858.006l1.596.773A7.6 7.6 0 0 1 8 21.326v-.698l-1.949-.944-2.629 1.224a1.001 1.001 0 0 1-1.328-.484 1 1 0 0 1 .485-1.328l3.06-1.425a1 1 0 0 1 .858.007l1.504.729v-1.778l-1.949-.944-2.629 1.224a1.001 1.001 0 0 1-1.328-.484 1 1 0 0 1 .485-1.328l3.06-1.425a1 1 0 0 1 .858.007l2.732 1.324h13.541l2.732-1.324a1 1 0 0 1 .858-.007m-4.36 3.33h-12v4.324a5.68 5.68 0 0 0 5.675 5.676h.65a5.68 5.68 0 0 0 5.675-5.676zm-5 5.999a1 1 0 1 1 0 2h-2a1 1 0 1 1 0-2zM19 19.01a1 1 0 1 1 0 2h-6.014a1 1 0 1 1 0-2zM11.286 3.828c.199 1.144.81 2.179 1.677 2.949A6.45 6.45 0 0 1 16 6c1.077 0 2.111.283 3.037.777.867-.771 1.478-1.806 1.677-2.95a1 1 0 0 1 1.971.344 7.2 7.2 0 0 1-2.001 3.826 7.15 7.15 0 0 1 2.001 3.83q.1.582.101 1.174a1 1 0 0 1-1 1H10.214a1 1 0 0 1-1-1c0-.393.034-.787.101-1.173a7.15 7.15 0 0 1 2.001-3.831 7.2 7.2 0 0 1-2.001-3.825 1 1 0 0 1 1.971-.344M16.001 8c-2.181 0-4.205 1.743-4.681 4h9.362c-.476-2.257-2.5-4-4.681-4" clip-rule="evenodd"/></g><defs><clipPath id="a"><path fill="#fff" d="M0 0h32v32H0z"/></clipPath></defs></svg>
